X: 392
T: QuickStep
C: by J Pringle
B: John Pringle "Collection of Reels Strathspeys & Jigs", 1801 p.39#2
Z: 2011 John Chambers <jc:trillian.mit.edu>
R: reel, quick step
M: 2/4
L: 1/8
K: Bb
V: 1
d/c/ |\
Bbag | fd ~Bd/f/ | (ed).c.B | (B/A/).c/.A/ FG/A/ |\
Bbaf | ge ~cf/e/ | dB e/c/B/A/ | BB B :|
A/B/ |\
cc (c/B/A/).B/ | cAFA | (Bd).g.^f | g2 ~ga/b/ |\
fbdf | Bdfd | ecdB | c/B/A/G/ F/E/D/!d.C.!c/ |]
V: 2 clef=bass middle=d
z | Bbc'b | BbBz | abc'=e' | f'c'af | zbaf | =efg_e | defF | Bb B :|
z | FAcf | afcA |GBdD | GgGz | Bbfd | BbBz | Acd=e | fFz2 |]

%%sep 2 1 500

